img/quote.svg

<svg width="58" height="40" viewBox="0 0 58 40" fill="none" xmlns="http://www.w3.org/2000/svg">
<path d="M34.1782 -8.54056e-05V22.3613L49.53 22.3613V24.3941L40.5307 39.1323H49.53L58 24.3941V22.3613L58 -8.54056e-05H34.1782Z" fill="#D9D9D9"/>
<path d="M-4.24491e-05 -8.54056e-05V22.3613L15.3518 22.3613V24.3941L6.35244 39.1323H15.3518L23.8218 24.3941L23.8218 22.3613V-8.54056e-05H-4.24491e-05Z" fill="#D9D9D9"/>
</svg>

<svg width="58" height="40" fill="none" xmlns="http://www.w3.org/2000/svg"><path d="M34.178 0V22.36H49.53v2.033l-9 14.738h9L58 24.394V0H34.178ZM0 0V22.36h15.352v2.033l-9 14.738h9l8.47-14.738V0H0Z" fill="#D9D9D9"/></svg>
